X:1
T:The Young British Rancher
M:3/4
L:1/4
K:D
 A/2A/2| A A3/2 A/2| A F D| E F E| D2 A| A A A| A A A| =c A B| A2 A/2A/2|\
 A d d| d A A| B A G| A2 A/2A/2| A A A| A F D| E3| D3| A3| A3| A B A|\
 F2 F/2A/2| A2 G| F2 E| D3-| D2|
